!!!id: EG013
!!!page: 31-32
!!!COM: Anonymous
!!!LYR: Anonymous
!!!PTL@@FR: Chansons Populaires du Canada
!!!OTL@@FR: Cecilia
!!!PUB: G. E. Desbarats
!!!YEM:
!!!PDT: 1865
!!!SMA:
!!!OMD:
!!!AGN-Laforte:
!!!AGN-type:
!!!AGN-rime:
**kern
*clefG2
*k[b-]
*F:
*M6/8
*
*
8a
8a
8a
=1
4a
8a
4cc
8b-
=2
4.b-
8dd
8cc
8b-
!!LO:PB:g=original
=3
4a
8a
4cc
8a
=4
4.g
8a
8a
8a
=5
4a
8a
4cc
8a
=6
4.f
8f
8f
8f
!!LO:PB:g=original
=7
8f
8e
8f
4g
8e
=8
4c
8r
4.cc
=9
4.a
4.f
=10
4c
8r
4.b-
=11
4a
8a
4cc
8cc
!!LO:PB:g=original
=12
4.ff
4.dd
=13
4b-
8b-
4cc
8cc
=14
4f
8r
8r
8r
==||
*
*
==|
*-
!!!RMB: second to last rest flipped backwards in original
